!!!COM: Bach, Johann Sebastian
!!!OPR: Joh. Seb. Bachs vierstimmige Choralgesänge
!!!XEN: Four-part Chorales
!!!OTL: 158. Singt dem Herrn ein neues Lied
!!!SCT: BWV 411
!!!SCA: Thematisch-systematisches Verzeichnis der musikalischen Werke Johann Sebastian Bach: Bach-Werke-Verzeichnis (Schmieder)
!!!YOR: Bach Gesellschaft Edition xxxix
!!!ENC: Steven Rasmussen
!!!CDT: 1685/3//-1750/7/28/
!!!OCY: Deutschland
!!!YEC: Copyright (c) 1994, 2000 Center for Computer Assisted Research in the Humanities
!!!YEM: Rights to all derivative editions reserved
!!!YEN: United States of America
**kern	**silbe	**kern	**silbe	**kern	**kern
*I:[SOPRANO]	*I:[SOPRANO]	*I:[ALTO]	*I:[ALTO]	*I:[TENORE]	*I:[BASSO]
*>[A,A,B,A,A,B,C]	*	*>[A,A,B]	*	*>[A,A,B]	*>[A,A,B]
*>A	*	*>A	*	*>A	*>A
*clefG2	*	*clefG2	*	*clefGv2	*clefF4
*k[f#]	*	*k[f#]	*	*k[f#]	*k[f#]
*G:	*	*G:	*	*G:	*G:
*M4/4	*	*M4/4	*	*M4/4	*M4/4
=1-	=1-	=1-	=1-	=1-	=1-
4g	Singtweil	8dL	.	8BL	8GL
.	.	8cJ	.	8cJ	8AJ
4g	demer	8BL	.	8dL	8BL
.	.	8cJ	.	8cJ	8AJ
4g	Herrnih-	4d	.	8BL	8GL
.	.	.	.	8cJ	8AJ
4d	ein-ren	4d	.	8BL	8GL
.	.	.	.	8AJ	8F#J
=2	=2	=2	=2	=2	=2
4g	neu-Gren-	(16eLL	.	4B	8EL
.	.	16f#JJ	.	.	.
.	.	4g)	.	.	8DJ
4a	-es-zen	.	.	8eL	8CL
.	.	8f#	.	8dJ	8DJ
2b;	Lied:Fried'	2g;	.	2d;	2GG;
*>B	*	*	*	*	*
=3	=3	=3	=3	=3	=3
8g	diehat	4d	diehat	8BL	8GL
8a	Ge-ver-	.	.	8AJ	8F#J
8b	-mei--lie-	8dL	Ge-ver-	4G	8GL
8cc#	-ne-hen	8gJ	.	.	8EJ
4dd	sollhoch	4f#	-mei--lie-	4A	8F#L
.	.	.	.	.	8E
4ff#	ihnvon	4a	-ne-hen	4d	8DJ
.	.	.	.	.	16ELL
.	.	.	.	.	16F#JJ
=4	=4	=4	=4	=4	=4
2ee	lo-o-	8b	sollhoch	8d	8G
.	.	8g	ihnvon	16c#LL	8E
.	.	.	.	16BJJ	.
.	.	8eL	lo-o-	4c#	4A
.	.	16aL	.	.	.
.	.	16gJJ	.	.	.
2dd;	-ben,-ben.	2f#;	-ben,-ben.	2A;	2D;
=5:|!	=5:|!	=5:|!	=5:|!	=5:|!	=5:|!
*>C	*	*>B	*	*>B	*>B
4ee	Is-	8gL	.	4c	4.c
.	.	8eJ	.	.	.
4dd	-ra-	8f#L	.	4d	.
.	.	8g#J	.	.	8B
4cc	-el	4a	.	8eL	4.A
.	.	.	.	8dJ	.
4ee	er-	4e	.	8cL	.
.	.	.	.	8BJ	8G
=6	=6	=6	=6	=6	=6
4dd	-freu'	8aL	.	8AL	4.Fn
.	.	8g#J	.	8BJ	.
4cc	sich	4a	.	8cL	.
.	.	.	.	16dL	8E
.	.	.	.	16eJJ	.
2b	des-	8aL	.	8fnL	8DL
.	.	16g#L	.	8d	8BBJ
.	.	16f#JJ	.	.	.
.	.	4g#	.	8B	4E
.	.	.	.	16eL	.
.	.	.	.	16dJJ	.
=7	=7	=7	=7	=7	=7
2a;	-sen,	2e;	.	2c;	2AA;
4a	wel-	4e	.	4c	8AAL
.	.	.	.	.	8CJ
4g#	-cher	4e	.	4B	8EL
.	.	.	.	.	8DJ
=8	=8	=8	=8	=8	=8
4a	ihn	4e	.	4c	8CL
.	.	.	.	.	8BBJ
4b	ge-	4e	.	4B	8AAL
.	.	.	.	.	8GG#J
4cc	-ma-	4e	.	8BL	8AAL
.	.	.	.	16AL	8BBJ
.	.	.	.	16G#JJ	.
4cc	-chet	4e	.	4A	8CL
.	.	.	.	.	8DJ
=9	=9	=9	=9	=9	=9
2b;	hat,	2e;	.	(4A	2E;
.	.	.	.	4G#;)	.
4g	und	4.e	.	8BL	8EL
.	.	.	.	16cL	8CJ
.	.	.	.	16BJJ	.
4a	in	.	.	4A	4Fn
.	.	16dLL	.	.	.
.	.	16cJJ	.	.	.
=10	=10	=10	=10	=10	=10
4b	Aeng-	(8d	.	8GL	8FnL
.	.	4g)	.	8BJ	8EJ
4cc	-sten	.	.	16ALL	8AL
.	.	.	.	16BJ	.
.	.	16fnLL	.	8cJ	8GJ
.	.	16eJJ	.	.	.
4cc	schaf-	4a	.	4d	8FL
.	.	.	.	.	8DJ
4b	-fet	4g	.	8dL	4G
.	.	.	.	8fnJ	.
=11	=11	=11	=11	=11	=11
2cc;	Rat:	2g;	.	2e;	2C;
4.dd	Sei-	4g	.	4d	8BBL
.	.	.	.	.	8CJ
.	.	4f#	.	4A	4D
8cc	-ner	.	.	.	.
=12	=12	=12	=12	=12	=12
4b	soll	4d	.	4G	(8GG
.	.	.	.	.	4G)
4a	er	4d	.	4A	.
.	.	.	.	.	8F#
8gL	nicht	8eL	.	8BL	8EL
8aJ	.	8f#J	.	8cJ	8DJ
4b	ver-	4g	.	4d	8CL
.	.	.	.	.	8BBJ
=13	=13	=13	=13	=13	=13
2a	-ges-	8gL	.	8eL	8CL
.	.	16f#L	.	8c	8AAJ
.	.	16eJJ	.	.	.
.	.	4f#	.	8A	4D
.	.	.	.	16dL	.
.	.	.	.	16cJJ	.
2g;	-sen.	2d;	.	2B;	2GG;
==|!	==|!	==|!	==|!	==|!	==|!
!!!RNB1: *) "Aengsten": sic in BG.
*-	*-	*-	*-	*-	*-
!!!RWG: Key is interpreted using the Humdrum key tool.
!!!END: 1994/07/29
!!!EMD: Converted from MuseData to Humdrum Dec 19, 2000, by Andreas Kornstaedt using muse2kern.
!!!EED: Craig Stuart Sapp
!!!EEV: 2024/03/31
!!!ONB: Some non-unicode characters
